img/svgicons/shop.svg

<svg width="37" height="37" viewBox="0 0 37 37" fill="none" xmlns="http://www.w3.org/2000/svg">
<g clip-path="url(#clip0_288_20)">
<path d="M36.3868 17.7712C36.3866 17.7572 36.3858 17.7432 36.3847 17.7292C36.3843 17.725 36.384 17.7207 36.3835 17.7164C36.3819 17.7032 36.3799 17.6902 36.3775 17.677C36.3765 17.6721 36.3757 17.6671 36.3746 17.6622C36.3721 17.6504 36.369 17.6387 36.3656 17.6271C36.3639 17.6211 36.3622 17.6151 36.3603 17.6092C36.357 17.5991 36.3532 17.589 36.3493 17.579C36.3465 17.572 36.3437 17.5649 36.3407 17.5579C36.3368 17.5492 36.3325 17.5405 36.3281 17.5319C36.3242 17.5243 36.3203 17.5168 36.316 17.5093C36.3139 17.5056 36.3122 17.5018 36.31 17.4981L34.2193 14.0144V11.3827C34.2193 11.0834 33.9767 10.8407 33.6773 10.8407H33.6772H33.6771H22.9208C24.0943 9.69205 24.8239 8.09158 24.8239 6.32368C24.8239 2.83671 21.9871 0 18.5003 0C15.0134 0 12.1766 2.83671 12.1766 6.3236C12.1766 8.09151 12.9062 9.69198 14.0797 10.8406H3.32368C3.02428 10.8406 2.78168 11.0833 2.78168 11.3826V14.0139L0.690605 17.4981C0.688943 17.5009 0.687715 17.5037 0.686125 17.5065C0.68056 17.5162 0.675357 17.526 0.670299 17.536C0.667191 17.5423 0.664012 17.5487 0.661121 17.5551C0.656857 17.5645 0.6531 17.5741 0.649342 17.5838C0.646523 17.5913 0.643705 17.5986 0.641176 17.6062C0.638357 17.6149 0.635828 17.6236 0.633371 17.6325C0.630914 17.6413 0.628529 17.6501 0.626506 17.6589C0.624844 17.6666 0.623398 17.6745 0.621953 17.6824C0.620219 17.6926 0.618484 17.7027 0.617328 17.713C0.616533 17.72 0.615955 17.7271 0.615449 17.7343C0.61451 17.7453 0.613932 17.7564 0.613787 17.7674C0.613715 17.7706 0.613281 17.7737 0.613281 17.777C0.613281 17.786 0.613932 17.7949 0.614004 17.8039C0.614004 17.8046 0.614004 17.8053 0.614076 17.8059C0.629758 19.2869 1.83876 20.487 3.32339 20.487C4.209 20.487 4.99662 20.06 5.4915 19.4011C5.9863 20.06 6.774 20.487 7.65961 20.487C8.54523 20.487 9.33285 20.06 9.82773 19.4011C10.3225 20.06 11.1102 20.487 11.9958 20.487C12.8815 20.487 13.6691 20.06 14.164 19.4011C14.6588 20.06 15.4465 20.487 16.3321 20.487C17.2177 20.487 18.0053 20.06 18.5002 19.4011C18.995 20.06 19.7827 20.487 20.6683 20.487C21.5539 20.487 22.3415 20.06 22.8364 19.4011C23.3312 20.06 24.1189 20.487 25.0045 20.487C25.8901 20.487 26.6778 20.06 27.1726 19.4011C27.6674 20.06 28.4551 20.487 29.3407 20.487C30.2264 20.487 31.0139 20.06 31.5088 19.4012C32.0037 20.0601 32.7913 20.487 33.6769 20.487C35.1606 20.487 36.369 19.2883 36.3861 17.8086C36.3866 17.8036 36.3866 17.7985 36.3867 17.7934C36.3867 17.7879 36.3871 17.7825 36.3871 17.7771C36.3871 17.7751 36.3868 17.7732 36.3868 17.7712ZM13.2606 6.3236C13.2606 3.4345 15.6111 1.08398 18.5003 1.08398C21.3894 1.08398 23.7399 3.43442 23.7399 6.3236C23.7399 9.21278 21.3894 11.5632 18.5003 11.5632C15.6111 11.5632 13.2606 9.21278 13.2606 6.3236ZM3.32346 19.4031C2.61685 19.4031 2.01437 18.9499 1.79063 18.319H4.85636C4.63269 18.9499 4.03014 19.4031 3.32346 19.4031ZM5.14123 17.235H2.11287L3.63052 14.7061H6.27934L5.14123 17.235ZM7.65968 19.4031C6.95307 19.4031 6.35059 18.9499 6.12686 18.319H9.19258C8.96885 18.9499 8.36637 19.4031 7.65968 19.4031ZM9.42456 17.235H6.32992L7.46811 14.7061H10.1833L9.42456 17.235ZM11.9959 19.4031C11.2893 19.4031 10.6868 18.9499 10.4631 18.319H13.5288C13.3051 18.9499 12.7026 19.4031 11.9959 19.4031ZM13.6972 17.235H10.5563L11.3151 14.7061H14.0766L13.6972 17.235ZM16.3321 19.4031C15.6255 19.4031 15.023 18.9499 14.7993 18.319H17.865C17.6413 18.9499 17.0388 19.4031 16.3321 19.4031ZM17.9582 17.235H14.7934L15.1728 14.7061H17.9582V17.235ZM20.6683 19.4031C19.9617 19.4031 19.3592 18.9499 19.1355 18.319H22.2012C21.9775 18.9499 21.375 19.4031 20.6683 19.4031ZM19.0422 17.235V14.7061H21.8276L22.207 17.235H19.0422ZM10.9105 13.6221C10.9082 13.6221 10.9059 13.622 10.9035 13.6221H7.13048C7.13027 13.6221 7.13005 13.6221 7.12976 13.6221H3.86574V11.9248H15.5676C16.4447 12.3858 17.4425 12.6474 18.5003 12.6474C19.5581 12.6474 20.5558 12.3859 21.4329 11.9248H33.1352V13.6221H29.8707C29.8704 13.6221 29.8702 13.6221 29.8699 13.6221H26.0963C26.0946 13.622 26.0929 13.6221 26.0913 13.6221H10.9105ZM22.9238 14.7061H25.6853L26.444 17.235H23.3032L22.9238 14.7061ZM25.0045 19.4031C24.2979 19.4031 23.6954 18.9499 23.4717 18.319H26.5374C26.3137 18.9499 25.7112 19.4031 25.0045 19.4031ZM26.8172 14.7061H29.5324L30.6706 17.235H27.5759L26.8172 14.7061ZM29.3407 19.4031C28.6341 19.4031 28.0317 18.9499 27.8079 18.319H30.8736C30.6499 18.9499 30.0474 19.4031 29.3407 19.4031ZM30.7211 14.7061H33.37L34.8877 17.235H31.8592L30.7211 14.7061ZM33.6769 19.4031C32.9703 19.4031 32.3679 18.9499 32.1441 18.319H35.2098C34.986 18.9499 34.3835 19.4031 33.6769 19.4031Z" fill="#C4C4C4"/>
<path d="M33.677 21.6428C33.3776 21.6428 33.1351 21.8854 33.1351 22.1848V35.9159H31.3283V22.7263C31.3283 22.427 31.0857 22.1843 30.7863 22.1843H23.5591C23.2597 22.1843 23.0171 22.427 23.0171 22.7263V35.9159H21.2102V34.2895C21.2102 33.9902 20.9676 33.7475 20.6682 33.7475H20.4875V33.567C20.4875 33.2676 20.2449 33.025 19.9455 33.025C19.6461 33.025 19.4035 33.2676 19.4035 33.567V33.7475H18.3194V33.567C18.3194 33.2676 18.0768 33.025 17.7775 33.025C17.4781 33.025 17.2355 33.2676 17.2355 33.567V33.7475H16.1514V33.567C16.1514 33.2676 15.9088 33.025 15.6094 33.025C15.31 33.025 15.0674 33.2676 15.0674 33.567V33.7475H13.9834V33.567C13.9834 33.2676 13.7408 33.025 13.4414 33.025C13.142 33.025 12.8994 33.2676 12.8994 33.567V33.7475H11.8153V33.567C11.8153 33.2676 11.5727 33.025 11.2733 33.025C10.9739 33.025 10.7313 33.2676 10.7313 33.567V33.7475H9.64728V33.567C9.64728 33.2676 9.40468 33.025 9.10529 33.025C8.80589 33.025 8.5633 33.2676 8.5633 33.567V33.7475H7.47924V33.567C7.47924 33.2676 7.23664 33.025 6.93725 33.025C6.63785 33.025 6.39525 33.2676 6.39525 33.567V33.7475H6.21401C5.91462 33.7475 5.67202 33.9902 5.67202 34.2895V35.9159H3.86523V22.1848C3.86523 21.8854 3.62264 21.6428 3.32324 21.6428C3.02385 21.6428 2.78125 21.8854 2.78125 22.1848V36.458C2.78125 36.7573 3.02385 37.0001 3.32324 37.0001H6.21401H20.6682H23.5591H30.7862H33.677C33.9764 37.0001 34.219 36.7574 34.219 36.458V22.1848C34.219 21.8854 33.9764 21.6428 33.677 21.6428ZM20.1262 35.9159H6.756V34.8315H20.1262V35.9159ZM30.2442 35.9159H24.1012V23.2683H30.2442V35.9159V35.9159Z" fill="#C4C4C4"/>
<path d="M20.6679 22.1842H6.21387C5.91447 22.1842 5.67188 22.4269 5.67188 22.7262V30.676C5.67188 30.9754 5.91454 31.218 6.21387 31.218H20.668C20.9674 31.218 21.21 30.9754 21.21 30.676V22.7263C21.21 22.4269 20.9674 22.1842 20.6679 22.1842ZM20.1259 30.134H6.75586V23.2683H20.1259V30.134Z" fill="#C4C4C4"/>
<path d="M28.6179 29.4112H25.7275C25.4281 29.4112 25.1855 29.6538 25.1855 29.9532C25.1855 30.2525 25.4281 30.4951 25.7275 30.4951H28.6179C28.9173 30.4951 29.1599 30.2525 29.1599 29.9532C29.16 29.6539 28.9174 29.4112 28.6179 29.4112Z" fill="#C4C4C4"/>
<path d="M21.5662 9.12916L21.2083 4.83326C21.1849 4.55229 20.95 4.33622 20.6681 4.33622H20.1262V3.79408C20.1262 2.89741 19.3967 2.16803 18.5002 2.16803C17.6036 2.16803 16.8741 2.89748 16.8741 3.79408V4.33622H16.3322C16.0537 4.33622 15.8206 4.54716 15.7928 4.82422L15.3591 9.16045C15.3439 9.31286 15.3938 9.46454 15.4966 9.57807C15.5994 9.69167 15.7453 9.75642 15.8985 9.75642H21.0295C21.03 9.7565 21.0305 9.7565 21.0309 9.75642C21.3303 9.75642 21.5729 9.51376 21.5729 9.21443C21.5728 9.18545 21.5706 9.15691 21.5662 9.12916ZM17.958 3.79408C17.958 3.49519 18.2011 3.25209 18.5001 3.25209C18.799 3.25209 19.0421 3.49519 19.0421 3.79408V4.33622H17.958V3.79408V3.79408ZM16.4973 8.67237L16.8226 5.4202H20.1694L20.4404 8.67237H16.4973Z" fill="#C4C4C4"/>
</g>
<defs>
<clipPath id="clip0_288_20">
<rect width="37" height="37" fill="white"/>
</clipPath>
</defs>
</svg>

<svg width="37" height="37" fill="none" xmlns="http://www.w3.org/2000/svg"><g clip-path="url(#a)" fill="#C4C4C4"><path d="M36.387 17.771a.656.656 0 0 0-.002-.042l-.002-.013a.67.67 0 0 0-.006-.039l-.002-.015a.475.475 0 0 0-.026-.083l-.008-.021a.564.564 0 0 0-.025-.049l-.006-.01-2.09-3.485v-2.631c0-.3-.243-.542-.543-.542H22.921a6.305 6.305 0 0 0 1.903-4.517A6.33 6.33 0 0 0 18.5 0a6.33 6.33 0 0 0-6.323 6.324c0 1.768.73 3.368 1.903 4.517H3.324c-.3 0-.542.242-.542.542v2.63L.69 17.499l-.005.008a.635.635 0 0 0-.016.03l-.009.02a.551.551 0 0 0-.012.028l-.008.022a.621.621 0 0 0-.019.076l-.005.031a.499.499 0 0 0-.003.054v.039A2.708 2.708 0 0 0 5.491 19.4a2.708 2.708 0 0 0 4.337 0 2.707 2.707 0 0 0 4.336 0 2.708 2.708 0 0 0 4.336 0 2.708 2.708 0 0 0 4.336 0 2.708 2.708 0 0 0 4.337 0 2.708 2.708 0 0 0 4.336 0 2.708 2.708 0 0 0 4.877-1.592v-.016l.001-.016v-.006ZM13.26 6.324c0-2.89 2.35-5.24 5.24-5.24 2.888 0 5.239 2.35 5.239 5.24 0 2.889-2.35 5.24-5.24 5.24-2.889 0-5.24-2.351-5.24-5.24Zm-9.938 13.08c-.706 0-1.309-.454-1.532-1.085h3.065a1.629 1.629 0 0 1-1.533 1.084Zm1.818-2.169H2.113l1.518-2.529h2.648l-1.138 2.529Zm2.519 2.168c-.707 0-1.31-.453-1.533-1.084h3.066a1.629 1.629 0 0 1-1.533 1.084Zm1.765-2.168H6.33l1.138-2.529h2.715l-.758 2.529Zm2.57 2.168c-.706 0-1.308-.453-1.532-1.084h3.066a1.629 1.629 0 0 1-1.533 1.084Zm1.702-2.168h-3.14l.758-2.529h2.762l-.38 2.529Zm2.635 2.168c-.707 0-1.309-.453-1.533-1.084h3.066a1.629 1.629 0 0 1-1.533 1.084Zm1.626-2.168h-3.165l.38-2.529h2.785v2.529Zm2.71 2.168c-.706 0-1.309-.453-1.532-1.084H22.2a1.629 1.629 0 0 1-1.533 1.084Zm-1.626-2.168v-2.529h2.786l.379 2.529h-3.165Zm-8.132-3.613H3.867v-1.697h11.702a6.286 6.286 0 0 0 2.932.722 6.284 6.284 0 0 0 2.933-.722h11.702v1.697H10.911Zm12.014 1.084h2.761l.759 2.529h-3.14l-.38-2.529Zm2.08 4.697c-.706 0-1.309-.453-1.532-1.084h3.065a1.629 1.629 0 0 1-1.532 1.084Zm1.813-4.697h2.715l1.139 2.529h-3.095l-.759-2.529Zm2.524 4.697a1.629 1.629 0 0 1-1.533-1.084h3.066a1.629 1.629 0 0 1-1.533 1.084Zm1.38-4.697h2.649l1.518 2.529h-3.029l-1.138-2.529Zm2.956 4.697a1.629 1.629 0 0 1-1.533-1.084h3.066a1.629 1.629 0 0 1-1.533 1.084ZM33.677 21.643c-.3 0-.542.242-.542.542v13.73h-1.807V22.727c0-.299-.242-.542-.542-.542H23.56c-.3 0-.542.243-.542.542v13.19H21.21v-1.627c0-.299-.242-.541-.542-.541h-.18v-.181a.542.542 0 1 0-1.084 0v.18h-1.085v-.18a.542.542 0 1 0-1.084 0v.18h-1.084v-.18a.542.542 0 1 0-1.084 0v.18h-1.084v-.18a.542.542 0 1 0-1.084 0v.18h-1.084v-.18a.542.542 0 1 0-1.084 0v.18H9.647v-.18a.542.542 0 1 0-1.084 0v.18H7.48v-.18a.542.542 0 1 0-1.084 0v.18h-.181c-.3 0-.542.243-.542.542v1.627H3.865V22.185a.542.542 0 1 0-1.084 0v14.273c0 .3.243.542.542.542h30.354c.3 0 .542-.243.542-.542V22.185c0-.3-.243-.542-.542-.542Zm-13.55 14.273H6.755v-1.084h13.37v1.084Zm10.117 0h-6.143V23.268h6.143v12.648Z"/><path d="M20.668 22.184H6.214c-.3 0-.542.243-.542.542v7.95c0 .3.243.542.542.542h14.454c.3 0 .542-.243.542-.542v-7.95c0-.3-.243-.542-.542-.542Zm-.542 7.95H6.756v-6.866h13.37v6.866ZM28.618 29.411h-2.89a.542.542 0 1 0 0 1.084h2.89a.542.542 0 1 0 0-1.084ZM21.566 9.13l-.358-4.297a.542.542 0 0 0-.54-.497h-.542v-.542c0-.897-.73-1.626-1.626-1.626-.896 0-1.626.73-1.626 1.626v.542h-.542a.542.542 0 0 0-.54.488L15.36 9.16a.542.542 0 0 0 .54.596h5.132a.542.542 0 0 0 .535-.627Zm-3.608-5.336a.543.543 0 0 1 1.084 0v.542h-1.084v-.542Zm-1.46 4.878.325-3.252h3.346l.271 3.252h-3.943Z"/></g><defs><clipPath id="a"><path fill="#fff" d="M0 0h37v37H0z"/></clipPath></defs></svg>
